!!!!SEGMENT: pl-sa--11-a-i-11--003_anonim--passio-domini-nostri-apprehendit.krn
!!!cenid: 18xx:1325
!!!COM: Anonim
!!!COM-rismID:
!!!CDT:
!!!CNT:
!!!OPR: Passio Domini Nostri
!!!OTL: Apprehendit
!!!OMV: 003
!!!PDT: 1815
!!!AGN: Sacred
!!!SMS-siglum: PL-SA
!!!SMS-shelfmark: 11/A I 11
!!!SMS-shelfwork: 001-003 M
!!!SMS-variant:
!!!SMS-altvar:
!!!NIFC-rismSourceID: 1001076834
!!!NIFC-islandoraID:
!!!URL-pdf-islandora:
!!!URL-scan: https://bc.bdsandomierz.pl/dlibra/publication/1277/edition/1245/content @EN{Scan on Cyfrowa Biblioteka Diecezjalna w Sandomierzu} @PL{Skany w portalu Cyfrowa Biblioteka Diecezjalna w Sandomierzu}
!!!ONB-nifc: UWAGA: części Pasji: 1. Pars I – Passio Domini nostri, 2. Pars I – Plankt – Witaj Jezu, 3. Pars II – Apprehendit, 4. Pars II – Tolle crucifige, 5. Pars II – Plankt – Oto przybity do krzyża, 6. Pars III – Orabat
!!!AIN: 1 organ 2 soprn 2 violn
!!!key: E-
**kern	**dynam	**kern	**dynam	**kern	**dynam	**kern	**text	**kern	**text
*part5	*part5	*part4	*part4	*part3	*part3	*part2	*part2	*part1	*part1
*group3	*	*group2	*	*group2	*	*group1	*	*group1	*
*staff5	*	*staff4	*	*staff3	*	*staff2	*staff2	*staff1	*staff1
*I"Organo.	*	*I"Violino Secundo.	*	*I"Violino Primo.	*	*I"Canto 2do.	*	*I"Canto Prima.	*
*I'org	*	*I'vl 2	*	*I'vl 1	*	*I'S 2	*	*I'S 1	*
*Iorgan	*	*Ivioln	*	*Ivioln	*	*Isoprn	*	*Isoprn	*
*ICklav	*	*ICstr	*	*ICstr	*	*ICvox	*	*ICvox	*
*clefF4	*	*clefG2	*	*clefG2	*	*clefC1	*	*clefC1	*
*k[e-b-a-]	*	*k[b-e-a-]	*	*k[b-e-a-]	*	*k[b-e-a-]	*	*k[b-e-a-]	*
*E-:	*	*E-:	*	*E-:	*	*E-:	*	*E-:	*
*M4/4	*	*M4/4	*	*M4/4	*	*M4/4	*	*M4/4	*
*met(c)	*	*met(c)	*	*met(c)	*	*met(c)	*	*met(c)	*
=1	=1	=1	=1	=1	=1	=1	=1	=1	=1
*tremolo	*	*	*	*	*	*	*	*	*
*2\right	*	*2\right	*	*2\right	*	*2\right	*	*	*
!!LO:TX:t=P:problem:oznaczenie metryczne C z kropką
!	!	!	!	!	!	!LO:TX:t=P:znaki:problem= ee- zamiast e-	!	!LO:TX:t=P:znaki:problem= ee- zamiast e-	!
!LO:TX:t=P:znaki:problem= A- zamiast AA-	!	!	!	!	!	!LO:TX:t=Pars. II.	!	!LO:TX:t=Pars II.	!
!LO:TX:t=Pars. II.	!	!LO:TX:t=Pars. II.	!	!LO:TX:t=Pars. II.	!	!LO:TX:b:t=9.	!	!LO:TX:a:t=9.	!
8E-\L	.	4.e-/	.	4.g/	.	00r	.	00r	.
8E-\	.	.	.	.	.	.	.	.	.
8E-\	.	.	.	.	.	.	.	.	.
8E-\J	.	8f/	.	8a-/	.	.	.	.	.
8E-\L	.	4g/	.	4b-/	.	.	.	.	.
8E-\	.	.	.	.	.	.	.	.	.
8E-\	.	4g/	.	4b-/	.	.	.	.	.
8E-\J	.	.	.	.	.	.	.	.	.
=2	=2	=2	=2	=2	=2	=2	=2	=2	=2
8E-\L	.	4g/	.	4b-/	.	.	.	.	.
8E-\	.	.	.	.	.	.	.	.	.
8E-\	.	4e-/	.	4g/	.	.	.	.	.
8E-\J	.	.	.	.	.	.	.	.	.
8E-\L	.	4r	.	4r	.	.	.	.	.
8E-\	.	.	.	.	.	.	.	.	.
8E-\	.	4g/	.	4b-/	.	.	.	.	.
8E-\J	.	.	.	.	.	.	.	.	.
=3	=3	=3	=3	=3	=3	=3	=3	=3	=3
8F\L	.	4.f/	.	4.a-/	.	.	.	.	.
8F\	.	.	.	.	.	.	.	.	.
8F\	.	.	.	.	.	.	.	.	.
8F\J	.	8g/	.	8b-/	.	.	.	.	.
8F\L	.	4a-/	.	4cc/	.	.	.	.	.
8F\	.	.	.	.	.	.	.	.	.
8F\	.	4a-/	.	4cc/	.	.	.	.	.
8F\J	.	.	.	.	.	.	.	.	.
=4	=4	=4	=4	=4	=4	=4	=4	=4	=4
8F\L	.	4a-/	.	4cc\	.	.	.	.	.
8F\	.	.	.	.	.	.	.	.	.
8F\	.	4f/	.	4a-\	.	.	.	.	.
8F\J	.	.	.	.	.	.	.	.	.
8F\L	.	4r	.	4r	.	.	.	.	.
8F\	.	.	.	.	.	.	.	.	.
8F\	.	4a-/	.	4cc\	.	.	.	.	.
8F\J	.	.	.	.	.	.	.	.	.
*Xtremolo	*	*	*	*	*	*	*	*	*
=5	=5	=5	=5	=5	=5	=5	=5	=5	=5
8E-\L	.	8g|\L	.	8b-'\L	.	00r	.	00r	.
8e-\	.	8ee-|\	.	8ee-'\	.	.	.	.	.
8d\	.	8dd|\	.	8dd'\	.	.	.	.	.
8c\J	.	8cc|\J	.	8cc'\J	.	.	.	.	.
8B-\L	.	8b-|\L	.	8b-'/L	.	.	.	.	.
8A-\	.	8a-|\	.	8a-'/	.	.	.	.	.
8G\	.	8g|\	.	8g'/	.	.	.	.	.
8F\J	.	8f|\J	.	8f'/J	.	.	.	.	.
=6	=6	=6	=6	=6	=6	=6	=6	=6	=6
4E-\	.	8e-/L	.	8g'/L	.	.	.	.	.
.	.	8b-/	.	8e-'/	.	.	.	.	.
4r	.	8g/	.	8b-'/	.	.	.	.	.
.	.	8b-/J	.	8g'/J	.	.	.	.	.
*	*	*rep	*	*	*	*	*	*	*
2r	.	8e-/L	.	8ee-'\L	.	.	.	.	.
.	.	8b-/	.	8b-'\	.	.	.	.	.
.	.	8g/	.	8gg'\	.	.	.	.	.
.	.	8b-/J	.	8ee-'\J	.	.	.	.	.
*	*	*Xrep	*	*	*	*	*	*	*
=7	=7	=7	=7	=7	=7	=7	=7	=7	=7
*tremolo	*	*	*	*	*	*	*	*	*
8BB-/L	.	8f/L	.	4.dd\	.	.	.	.	.
8BB-/	.	8b-/	.	.	.	.	.	.	.
8BB-/	.	8a-/	.	.	.	.	.	.	.
8BB-/J	.	8b-/J	.	8ee-\	.	.	.	.	.
*	*	*rep	*	*	*	*	*	*	*
8BB-/L	.	8f/L	.	8ff\L	.	.	.	.	.
8BB-/	.	8b-/	.	8gg\	.	.	.	.	.
8BB-/	.	8a-/	.	8aa-\	.	.	.	.	.
8BB-/J	.	8b-/J	.	8ff\J	.	.	.	.	.
*Xtremolo	*	*Xrep	*	*	*	*	*	*	*
=8	=8	=8	=8	=8	=8	=8	=8	=8	=8
4E-\	.	4ee-\	.	4gg\	.	.	.	.	.
4E-\	.	4ee-\	.	4gg\	.	.	.	.	.
4D\	.	4ff\	.	4aa-\	.	.	.	.	.
4E-\	.	4ee-\	.	4gg\	.	.	.	.	.
=9	=9	=9	=9	=9	=9	=9	=9	=9	=9
2B-\	.	2ee-\	.	2gg\	.	1r	.	1r	.
2BB-/	.	2dd\	.	2ff\	.	.	.	.	.
=10	=10	=10	=10	=10||	=10	=10	=10	=10	=10
!	!LO:DY:b:t=p.	!	!LO:DY:b:t=pp.	!	!LO:DY:b:t=pp.	!LO:SIC:v:l:s=Ap-	!	!LO:SIC:v:l:s=Ap-	!
2E-\	p	4g/	pp	4b-\	pp	4g/	A-	4b-\	A-
.	.	4g/	.	4b-\	.	4g/	-pre-	4b-\	-prae-
2r	.	8g/L	.	8b-/L	.	8g/L	-hen-	8b-\L	-hen-
.	.	8f/J	.	8a-/J	.	8f/J	.	8a-\J	.
.	.	4e-/	.	4g/	.	4e-/	-dit	4g/	-dit
=11	=11	=11	=11	=11	=11	=11	=11	=11	=11
4E-\	.	(8g/L	.	8ee-\L	.	8g\L	er-	8ee-\L	er-
.	.	8f/	.	8dd\	.	8b-\J	.	8dd\J	.
4E-\	.	8a-/	.	8cc\	.	8a-\L	-go	8cc\L	-go
.	.	8g/J)	.	8b-\J	.	8g\J	.	8b-\J	.
4E-\	.	4g/	.	4b-\	.	4g\	pi-	4b-\	Pi-
4E-\	.	8e-/L	.	8g/L	.	8e-/L	-la-	8g\	-la-
.	.	8g/J	.	8b-/J	.	8g/J	-tus	8b-\	-tus
!	!	!	!	!LO:LB:g=original	!	!	!	!	!
=12	=12	=12	=12	=12	=12	=12	=12	=12	=12
4r	.	4g/	.	4b-/	.	4g/	Je-	4b-\	Je-
4BB-/	.	4f/	.	4a-/	.	4f/	-sum	4a-\	-sum
4D/	.	(8f/L	.	(8a-/L	.	2r	.	2r	.
.	.	8e-/	.	8g/	.	.	.	.	.
4F/	.	8e-/	.	8g/	.	.	.	.	.
.	.	8d/J)	.	8f/J)	.	.	.	.	.
=13	=13	=13	=13	=13	=13	=13	=13	=13	=13
4D\	.	4dd\	.	4ff\	.	4dd\	et	4ff\	et
4D\	.	8b-\L	.	8dd\L	.	8b-\L	fla-	8dd\L	fla-
!	!	!	!	!	!	!LO:SIC:v:l:s=-gel-	!	!LO:SIC:v:l:s=-gel-	!
.	.	8cc\J	.	8ee-\J	.	8cc\J	-ge-	8ee-\J	-ge-
4D\	.	4dd\	.	4ff\	.	4dd\	-la-	4ff\	-la-
4D\	.	4f/	.	4a-/	.	4f/	-vit	4a-\	-vit
!	!	!LO:LB:g=original	!	!	!	!	!	!	!
=14	=14	=14	=14	=14	=14	=14	=14	=14	=14
4E-\	.	4e-/	.	4g/	.	4e-/	e-	4g\	E-
4E-\	.	4g/	.	4b-/	.	4g/	-um	4b-\	-um
!	!	!	!	!LO:TX:t=P:problem=8b poprawione na 8cc	!	!	!	!	!
2r	.	8a-/L	.	(8cc\L	.	2r	.	2r	.
.	.	8a-/	.	8cc\	.	.	.	.	.
.	.	8a-/	.	8cc\	.	.	.	.	.
.	.	8f/J	.	8dd\J)	.	.	.	.	.
=15	=15	=15	=15	=15	=15	=15	=15	=15	=15
4r	.	4g/	.	4ee-\	.	4g/	et	4ee-\	et
4E-\	.	8g/L	.	8ee-\L	.	8g/L	mi-	8ee-\	mi-
.	.	8g/J	.	8ee-\J	.	8g/J	-li-	8ee-\	-li-
4G\	.	4g/	.	4ee-\	.	4g/	-tes	4ee-\	-tes
4E-\	.	4g/	.	4ee-\	.	4g/	ple-	4ee-\	ple-
=16	=16	=16	=16	=16	=16	=16	=16	=16	=16
4r	.	4g/	.	4ee-\	.	4g/	-cten-	4ee-\	-cten-
4F\	.	4f/	.	4dd\	.	4f/	.	4dd\	.
*	*	*	*	*	*	*	*	*2\right	*
4D\	.	2f/	.	2dd\	.	2f/	-tes	2dd\	-tes
4BB-\	.	.	.	.	.	.	.	.	.
!	!	!	!	!	!	!	!	!LO:LB:g=original	!
=17	=17	=17	=17	=17	=17	=17	=17	=17	=17
4r	.	4a-/	.	4ff\	.	4a-\	et	4ff\	et
4D\	.	8a-/L	.	8ff\L	.	8a-\L	mi-	8ff\	mi-
.	.	8a-/J	.	8ff\J	.	8a-\J	-li-	8ff\	-li-
4F\	.	4a-/	.	4ff\	.	4a-\	-tes	4ff\	-tes
4D\	.	4a-/	.	4ff\	.	4a-\	ple-	4ff\	ple-
!	!	!	!	!	!	!LO:PB:g=original	!	!	!
=18	=18	=18	=18	=18	=18	=18	=18	=18	=18
4r	.	4a-/	.	4ff\	.	4a-\	-cten-	4ff\	-cten-
4E-\	.	4g/	.	4ee-\	.	4g\	.	4ee-\	.
4BB-/	.	2g/	.	2ee-\	.	2g/	-tes	2ee-\	-tes
4EE-/	.	.	.	.	.	.	.	.	.
!LO:LB:g=original	!	!	!	!	!	!	!	!	!
=19	=19	=19	=19	=19	=19	=19	=19	=19	=19
4E-\	.	4g/	.	4ee-\	.	4g/	co-	4ee-\	Co-
4r	.	8b-/L	.	8dd\L	.	8b-\	-ro-	8dd\L	-ro-
.	.	8a-/J	.	8cc\J	.	8a-\	-nam	8cc\J	-nam
4E-\	.	4g/	.	4b-/	.	4g/	ſpi-	4b-\	ſpi-
4r	.	8f/L	.	8a-/L	.	8f/L	-ne-	8a-\	-ne-
.	.	8e-/J	.	8g/J	.	8e-/J	-am	8g\	-am.
=20	=20	=20	=20	=20	=20	=20	=20	=20	=20
!	!	!	!	!	!	!LO:SIC:v:l:s=im-	!	!	!
4BB-/	.	4f/	.	4a-/	.	4f/	in-	4a-\	im-
4F\	.	8f/L	.	8a-/L	.	8f/	-po-	8a-\	-po-
.	.	8f/J	.	8a-/J	.	8f/	-su-	8a-\	-su-
4D\	.	4f/	.	4a-/	.	4f/	-e-	4a-\	-e-
4BB-/	.	4f/	.	4a-/	.	4f/	-runt	4a-\	-runt
=21	=21	=21	=21	=21	=21	=21	=21	=21	=21
4E-\	.	4e-/	.	4g/	.	4e-/	ca-	4g\	ca-
4E-\	.	4f/	.	4a-/	.	4f/	.	4a-\	.
4E-\	.	4g/	.	4b-/	.	4g/	.	4b-\	.
4E-\	.	8f/L	.	8a-/L	.	8f/	-pi-	8a-\	-pi-
.	.	8e-/J	.	8g/J	.	8e-/	-ti	8g\	-ti
=22	=22	=22	=22	=22	=22	=22	=22	=22	=22
4E-\	.	4e-/	.	4g/	.	4e-/	e-	4g/	e-
4BB-/	.	4d/	.	4f/	.	4d/	-jus	4f/	-jus
2rBB	.	8d/L	.	8f/L	.	2re	.	2r	.
.	.	8f/	.	8a-/	.	.	.	.	.
.	.	8e-/	.	8g/	.	.	.	.	.
.	.	8d/J	.	8f/J	.	.	.	.	.
=23	=23	=23	=23	=23	=23	=23	=23	=23	=23
!	!	!	!	!	!LO:DY:b:t=for.	!LO:TX:a:t=8	!	!LO:TX:a:t=8	!
4E-\	.	8G/L	.	8e-/L	f	00r	.	00r	.
.	.	8B-/	.	8g/	.	.	.	.	.
4r	.	8G/	.	8b-/	.	.	.	.	.
.	.	8B-/J	.	8b-/J	.	.	.	.	.
*	*	*rep	*	*rep	*	*	*	*	*
4E-\	.	8G/L	.	8e-/L	.	.	.	.	.
.	.	8B-/	.	8g/	.	.	.	.	.
4r	.	8G/	.	8b-/	.	.	.	.	.
.	.	8B-/J	.	8b-/J	.	.	.	.	.
*	*	*Xrep	*	*Xrep	*	*	*	*	*
=24	=24	=24	=24	=24	=24	=24	=24	=24	=24
4AA-/	.	8A-/L	.	8e-/L	.	.	.	.	.
.	.	8c/	.	8a-/	.	.	.	.	.
4r	.	8A-/	.	8cc/	.	.	.	.	.
.	.	8c/J	.	8cc/J	.	.	.	.	.
*	*	*rep	*	*rep	*	*	*	*	*
4AA-/	.	8A-/L	.	8e-/L	.	.	.	.	.
.	.	8c/	.	8a-/	.	.	.	.	.
4r	.	8A-/	.	8cc/	.	.	.	.	.
.	.	8c/J	.	8cc/J	.	.	.	.	.
*	*	*Xrep	*	*Xrep	*	*	*	*	*
!	!	!	!	!LO:LB:g=original	!	!	!	!	!
=25	=25	=25	=25	=25	=25	=25	=25	=25	=25
4BB-/	.	8d/L	.	8d/L	.	.	.	.	.
.	.	8f/	.	8f/	.	.	.	.	.
4r	.	8d/	.	8b-/	.	.	.	.	.
.	.	8f/J	.	8b-/J	.	.	.	.	.
*	*	*rep	*	*rep	*	*	*	*	*
4BB-/	.	8d/L	.	8d/L	.	.	.	.	.
.	.	8f/	.	8f/	.	.	.	.	.
4r	.	8d/	.	8b-/	.	.	.	.	.
.	.	8f/J	.	8b-/J	.	.	.	.	.
*	*	*Xrep	*	*Xrep	*	*	*	*	*
=26	=26	=26	=26	=26	=26	=26	=26	=26	=26
8r	.	4.g/	.	4.b-/	.	.	.	.	.
8E-\L	.	.	.	.	.	.	.	.	.
8E-\	.	.	.	.	.	.	.	.	.
8E-\J	.	8e-/	.	8g/	.	.	.	.	.
*tremolo	*	*	*	*	*	*	*	*	*
8E-\L	.	8a-/L	.	(8cc\L	.	.	.	.	.
8E-\	.	8g/	.	8b-\	.	.	.	.	.
8E-\	.	8f/	.	8a-\	.	.	.	.	.
8E-\J	.	8e-/J	.	8g\J)	.	.	.	.	.
*Xtremolo	*	*	*	*	*	*	*	*	*
!	!	!LO:LB:g=original	!	!	!	!	!	!	!
=27	=27	=27	=27	=27	=27	=27	=27	=27	=27
4E-\	.	8e-/L	.	(8g/L	.	00r	.	00r	.
.	.	8d/J	.	8f/J)	.	.	.	.	.
4BB-/	.	4d/	.	4f/	.	.	.	.	.
2rBB	.	8d/L	.	8f|/L	.	.	.	.	.
.	.	8d/	.	8f|/	.	.	.	.	.
.	.	8e-/	.	(8g/	.	.	.	.	.
.	.	8f/J	.	8a-/J)	.	.	.	.	.
=28	=28	=28	=28	=28	=28	=28	=28	=28	=28
*tremolo	*	*	*	*	*	*	*	*	*
8E-\L	.	8e-/L	.	(8g/L	.	.	.	.	.
8E-\	.	8f/J	.	8a-/J)	.	.	.	.	.
8E-\	.	4g/	.	4b-/	.	.	.	.	.
8E-\J	.	.	.	.	.	.	.	.	.
8E-\L	.	8a-/L	.	(8cc/L	.	.	.	.	.
8E-\	.	8g/	.	8b-/	.	.	.	.	.
8E-\	.	8f/	.	8a-/	.	.	.	.	.
8E-\J	.	8e-/J	.	8g/J)	.	.	.	.	.
*Xtremolo	*	*	*	*	*	*	*	*	*
=29	=29	=29	=29	=29	=29	=29	=29	=29	=29
4BB-/	.	4d/	.	4f/	.	.	.	.	.
4F\	.	8f/L	.	8a-/L	.	.	.	.	.
.	.	8e-/J	.	8g/J	.	.	.	.	.
4E-\	.	4e-/	.	4g/	.	.	.	.	.
4EE-/	.	4e-/	.	4g/	.	.	.	.	.
=30	=30	=30	=30	=30	=30	=30	=30	=30	=30
4D\	.	4d/	.	4f/	.	.	.	.	.
4BB-/	.	8f/L	.	8a-/L	.	.	.	.	.
.	.	8e-/J	.	8g/J	.	.	.	.	.
4E-\	.	4e-/	.	4g/	.	.	.	.	.
4EE-/	.	4rg	.	4r	.	.	.	.	.
=31	=31	=31	=31	=31	=31	=31	=31	=31	=31
!LO:TX:t=P:problem=zbędne powtórzenie t. 30	!	!LO:TX:t=P:problem=zbędne powtórzenie w org	!	!LO:TX:t=P:problem=zbędne powtórzenie w org	!	!LO:TX:t=P:problem=zbędne powtórzenie w org	!	!LO:TX:t=P:problem=zbędne powtórzenie w org	!
4D\	.	1ryy	.	1ryy	.	1ryy	.	1ryy	.
4BB-\	.	.	.	.	.	.	.	.	.
4E-\	.	.	.	.	.	.	.	.	.
4EE-/	.	.	.	.	.	.	.	.	.
=32	=32	=32	=32	=32	=32	=32	=32	=32	=32
!	!	!	!	!	!LO:DY:b	!	!	!	!
4E-\	.	4g/	.	(4b-\	p	4g/	et	4b-\	et
4G\	.	4g/	.	4ee-\	.	4g/	.	4ee-\	.
4G\	.	4g/	.	4ee-\	.	4g/	ve-	4ee-\	ve-
4G\	.	4b-/	.	4dd-X\)	.	4b-/	-ste	4dd-X\	-ste
!	!	!	!	!	!	!	!	!LO:TX:t=P:problem=wykreślone nuty	!
!	!	!	!	!	!	!	!	!LO:LB:g=original	!
=33	=33	=33	=33	=33	=33	=33	=33	=33	=33
4B-\	.	4b-\	.	4dd-X\	.	4b-\	pur-	4dd-X\	pur-
4E-\	.	8b-\L	.	8dd-\L	.	8b-\	-pu-	8dd-\	-pu-
.	.	8b-\J	.	8dd-\J	.	8b-\	-re-	8dd-\	-re-
4A-\	.	4a-\	.	4cc\	.	4a-\	-a	4cc\	-a
4AA-/	.	4rg	.	4r	.	4r	.	4r	.
=34	=34	=34	=34	=34	=34	=34	=34	=34	=34
*	*	*	*	*	*	*	*ij	*	*
4F\	.	4an/	.	(4cc\	.	4an\	et	4cc\	et
4An\	.	4a/	.	4ff\	.	4a\	.	4ff\	.
4A\	.	4a/	.	4ff\	.	4a\	ve-	4ff\	ve-
!	!	!	!	!	!	!LO:TX:t=P:problem=4a poprawione na 4cc	!	!	!
!	!	!	!	!	!	!LO:TX:a:t=c	!	!	!
4A\	.	4cc/	.	4ee-\)	.	4cc\	-ste	4ee-\	-ste
*	*	*	*	*	*	*	*Xij	*	*
!	!	!	!	!	!	!LO:LB:g=original	!	!	!
=35	=35	=35	=35	=35	=35	=35	=35	=35	=35
4An\	.	4cc\	.	4ee-\	.	4cc\	pur-	4ee-\	pur-
4A\	.	8cc\L	.	8ee-\L	.	8cc\	-pu-	8ee-\	-pu-
.	.	8cc\J	.	8ee-\J	.	8cc\	-re-	8ee-\	-re-
8B-\L	.	4b-\	.	4ddn\	.	4b-\	-a	4ddn\	-a
8F\	.	.	.	.	.	.	.	.	.
8D\	.	4rg	.	4r	.	4r	.	4r	.
8BB-\J	.	.	.	.	.	.	.	.	.
=36	=36	=36	=36	=36	=36	=36	=36	=36	=36
!	!	!	!LO:DY:b:t=for.	!	!LO:DY:b:t=for.	!	!	!	!
4E-\	.	4g/	f	4ee-\	f	4g/	cir-	4ee-\	cir-
4r	.	8g/L	.	8b-|\L	.	8g/	-cum-	8b-\	-cu(m)-
.	.	8g/J	.	8b-|\J	.	8g/	-de-	8b-\	-dae-
2r	.	8a-/L	.	(8cc/L	.	8a-/L	-de-	8cc\L	-de-
.	.	8g/	.	8b-/	.	8g/J	.	8b-\J	.
.	.	8f/	.	8a-/	.	8f/L	-runt	8a-\L	-runt
.	.	8e-/J	.	8g/J)	.	8e-/J	.	8g\J	.
=37	=37	=37	=37	=37	=37	=37	=37	=37	=37
!	!	!	!LO:DY:b:t=p.	!	!LO:DY:b:t=p.	!	!	!	!
4BB-/	.	8d/L	p	8f/L	p	8d/L	E-	8f/L	E-
.	.	8e-/J	.	8g/J	.	8e-/J	.	8g/J	.
4BB-/	.	2f/	.	2a-/	.	4f/	-um	4a-\	-um
4BB-/	.	.	.	.	.	2r	.	2r	.
4BB-/	.	4d/	.	4f/	.	.	.	.	.
!LO:LB:g=original	!	!	!	!LO:LB:g=original	!	!	!	!	!
=38	=38	=38	=38	=38	=38	=38	=38	=38	=38
4E-\	.	4e-/	.	4g/	.	4g\	cir-	4g\	cir-
4r	.	8g/L	.	8b-|/L	.	8g\	-cum-	8b-\	-cum-
.	.	8g/J	.	8b-|/J	.	8g\	-de-	8b-\	-de-
2rBB	.	8a-/L	.	(8cc/L	.	8a-\	-de-	8cc\L	-de-
.	.	8g/	.	8b-/	.	8g\	.	8b-\J	.
.	.	8f/	.	8a-/	.	8f/L	-runt	8a-\L	-runt
.	.	8e-/J	.	8g/J)	.	8e-/J	.	8g\J	.
=39	=39	=39	=39	=39	=39	=39	=39	=39	=39
4B-\	.	4e-/	.	4g|/	.	4e-/	e-	4g/	E-
4BB-/	.	4d/	.	4f|/	.	4d/	-um	4f/	-um
!	!	!	!	!	!LO:DY:b:t=for.	!	!	!	!
4D/	.	8d/L	.	8f|/L	f	2re	.	2re	.
.	.	8d/	.	8f|/	.	.	.	.	.
4F/	.	8e-/	.	(8g/	.	.	.	.	.
.	.	8f/J	.	8a-/J)	.	.	.	.	.
!	!	!LO:LB:g=original	!	!	!	!	!	!	!
=40	=40	=40	=40	=40	=40	=40	=40	=40	=40
!	!	!	!LO:DY:b:t=p.	!	!LO:DY:b:t=pp.	!	!	!LO:TX:a:t=3.	!
4E-\	.	4g/	p	4b-\	pp	4b-\	A-	0r	.
4r	.	4g/	.	4ee-\	.	4ee-\	-it	.	.
2r	.	4g/	.	4ee-\	.	4ee-\	Pi-	.	.
.	.	4g/	.	4ee-\	.	4ee-\	-la-	.	.
=41	=41	=41	=41	=41	=41	=41	=41	=41	=41
4E-\	.	4g/	.	4b-\	.	4b-\	-tus	.	.
4r	.	4g/	.	4b-\	.	4b-\	Ju-	.	.
2r	.	4g/	.	4b-\	.	4b-\	-dae-	.	.
.	.	4g/	.	4b-\	.	4b-\	-is	.	.
=42	=42	=42	=42	=42	=42	=42	=42	=42	=42
4r	.	4g/	.	4g/	.	4g/	di-	1r	.
4E-\	.	4e-/	.	4e-/	.	4e-/	-cens	.	.
4G\	.	4g/	.	4g/	.	2re	.	.	.
4B-\	.	4b-/	.	4b-/	.	.	.	.	.
!	!	!	!	!	!	!LO:LB:g=original	!	!LO:LB:g=original	!
=43	=43	=43	=43	=43	=43	=43	=43	=43	=43
4r	.	4dd\	.	4ff\	.	4dd\	ad	4ff\	ad
4B-\	.	8b-\L	.	8dd\L	.	8b-\L	il-	8dd\L	il-
.	.	8cc\J	.	8ee-\J	.	8cc\J	-li	8ee-\J	-li
4B-\	.	4dd\	.	4ff\	.	4dd\	ma-	4ff\	ma-
4B-\	.	4ee-\	.	4gg\	.	4ee-\	-gis	4gg\	-gis
=44	=44	=44	=44	=44	=44	=44	=44	=44	=44
4BB-/	.	8ff\L	.	8aa-\L	.	8ff\	cla-	8aa-\	cla-
.	.	8ff\	.	8aa-\	.	8ff\	-ma-	8aa-\	-ma-
4B-\	.	8ee-\	.	8gg\	.	8ee-\	-bant	8gg\	-bant
.	.	8ee-\J	.	8gg\J	.	8ee-\	di-	8gg\	di-
4B-\	.	4ee-\	.	4gg\	.	4ee-\	-cen-	4gg\	-cen-
4B-\	.	4dd\	.	4ff\	.	4dd\	-tes	4ff\	-tes
=45	=45	=45	=45	=45	=45	=45	=45	=45	=45
!	!	!	!	!	!	!	!	!LO:TX:a:t=2	!
4e-\	.	4ee-'\	.	4ee-'\	.	4ee-\	Re-	0r	.
4d\	.	4dd'\	.	4dd'\	.	4dd\	.	.	.
4c\	.	4cc'\	.	4cc'\	.	4cc\	.	.	.
4B-\	.	4b-'\	.	4b-'\	.	4b-\	-gem	.	.
=46	=46	=46	=46	=46	=46	=46	=46	=46	=46
4A-\	.	4a-'/	.	4a-'/	.	4a-\	non	.	.
4G\	.	4g'/	.	4g'/	.	4g\	ha-	.	.
4F\	.	4f'/	.	4f'/	.	4f\	-be-	.	.
4E-\	.	4e-'/	.	4e-'/	.	4e-\	-mus	.	.
=47	=47	=47	=47	=47	=47	=47	=47	=47	=47
4BB-\	.	8.d/L	.	8.b-\L	.	8.d/	ni-	8.b-\	ni-
.	.	16d/Jk	.	16b-\Jk	.	16d/	-si	16b-\	-si
4B-\	.	4d/	.	4b-\	.	4d/	Cae-	4b-\	Ce-
2r	.	16d/LL	.	16b-\LL	.	16d/LL	-sa-	16b-\LL	-sa-
.	.	16e-/	.	16cc\	.	16e-/	.	16cc\	.
.	.	16f/	.	16dd\	.	16f/	.	16dd\	.
.	.	16e-/JJ	.	16cc\JJ	.	16e-/JJ	.	16cc\JJ	.
.	.	4d/	.	4b-\	.	4d/	-rem	4b-\	-rem
=48	=48	=48	=48	=48	=48	=48	=48	=48	=48
4E-\	.	4ee-\	.	4gg\	.	4ee-\	qvid	4gg\	qvid
4BB-/	.	8b-\L	.	8ff\L	.	8b-\	er-	8ff\	er-
.	.	8b-\J	.	8ff\J	.	8b-\	-go	8ff\	-go
4E-\	.	8g/L	.	8ee-\L	.	8g\	vul-	8ee-\L	vul-
.	.	8g/J	.	8ee-\	.	8g\	-tis	8ee-\J	-tis
4BB-/	.	8f/L	.	8dd\	.	8f\	fa-	8dd\	fa-
.	.	8f/J	.	8dd\J	.	8f\	-tiam	8dd\	-tiam
=49	=49	=49	=49	=49	=49	=49	=49	=49	=49
8E-\L	.	8g/L	.	8ee-\L	.	8g\	E-	8ee-\	E-
8E-\J	.	8g/J	.	8ee-\J	.	8g\	-j(us)	8ee-\	-j(us)
4r	.	4r;	.	4r	.	4r	.	4r	.
2rBB;	.	2r	.	2r;	.	2re;	.	2r;	.
==	==	==	==	==	==	==	==	==	==
*-	*-	*-	*-	*-	*-	*-	*-	*-	*-
!!!system-decoration: [(g1)][(g2)]g3
!!!RDF**kern: | = vertical stroke
!!!ENC: Katarzyna Serwa
!!!END: 2022-03-27
!!!ENC: Andrzej Kubiczek
!!!END: 2020-12-06
